X:1
T:Title
%%score ( 1 2 ) ( 3 4 )
L:1/8
Q:1/4=102
M:4/4
K:Bb
V:1 treble nm="Grand Piano, Soprano"
V:2 treble 
V:3 bass nm="Choir Pad, There’s Room at the Cross"
V:4 bass 
V:1
 [DF]2 [DF]>[CE] [B,D]>[CE] [DF]2 | [EG]2 [FB]6 | [FB]>[FB] [GB]>[GB] [GB]>[GB] [EG]2 | %3
w: By~Robert~Robert~G.~Jolly * * * * *|||
 [EB]2 [DF]6 | [DF]2 [EF]2 [EA]2 [EA]2 | [EG]2 [DF]2 [DB]2 [DB]2 | [FB]2 [=Ec]2 [Ec][EB] [EA]2 | %7
w: ||||
 z2 c6 | [EF]2 [DF]2 [DF]>[DF] [DF]2 | z2 d6 | [^Fc]2 [GB]2 [GB]>[GB] [=FA]2 | z2 F6 | %12
w: |||||
 [B,D]>[CE] [DF]>[_D=E] [=DF]>[_EG] [DF]2 | [FB]>[F_d] [F=d]>[=E_d] [F=d]>[Fe] [Ff]2 | %14
w: ||
 [Geg]2 [Fdf]2 [Fdf]>[Fdf] [Fdf]2 | [Ece]2 [Bd]2- [EB-d-]2 [DBd]2 |] %16
w: ||
V:2
 x8 | x8 | x8 | x8 | x8 | x8 | x8 | [=EB]2 F2 E2 _E2 | x8 | [FB]2 F2 ^F2 G2 | x8 | [EG]2 D2 D2 D2 | %12
 x8 | x8 | x8 | z2 D4 z2 |] %16
V:3
 [B,,B,]2 [B,,B,]>[B,,B,] [B,,F,]>[B,,F,] [B,,B,]2 | [E,B,]2 [D,B,]6 | %2
 [D,B,]>[D,B,] [E,E]>[E,E] [E,E]>[E,E] [E,B,]2 | [G,B,]2 B,6 | B,2 [F,A,]2 [F,C]2 [F,C]2 | %5
 [F,A,]2 [B,,B,]2 [B,,F,]2 [B,,F,]2 | [D,B,]2 [C,B,]2 [C,B,][C,G,] [C,C]2 | %7
 [C,C]2 [F,A,]2 [G,B,]2 [F,A,]2 | [A,C]2 B,2 [B,,B,]>[B,,B,] [B,,B,]2 | %9
 [D,B,]2 B,2 [A,C]2 [G,B,]2 | [D,A,]2 [E,G,]2 [E,B,]>[E,B,] [E,B,]2 | %11
 [E,B,]2 [B,,B,]2 [B,,B,]2 [B,,B,]2 | [B,,F,]>[B,,F,] [B,,B,]>[B,,B,] [B,,B,]>[B,,B,] [B,,B,]2 | %13
 [D,B,]>[C,A,] [B,,B,]>[B,,B,] [B,,B,]>[C,A,] [D,B,]2 | [E,B,]2 [F,B,]2 [F,B,]>[F,B,] [F,A,]2 | %15
 [F,A,]2 F,2- [F,G,]2 F,2 |] %16
V:4
 x8 | x8 | x8 | x8 | x8 | x8 | x8 | x8 | x8 | x8 | x8 | x8 | x8 | x8 | x8 | z2 [B,,B,]6 |] %16

